X:1
T:Allington, SM
T:Allington, SM
T:John Hopkins, 1875
T:Public Domain Courtesy of the Cyber Hymnal™
C:John Hopkins, 1875
Z:Public Domain
Z:Courtesy of the Cyber Hymnal™
%%score ( 1 2 ) ( 3 4 )
L:1/8
Q:1/4=115
M:none
K:G
V:1 treble 
V:2 treble 
V:3 bass 
V:4 bass 
V:1
 [DB]2 | [DA]2 [DG]2 [Cc]2 [Ec]2 | [DB]6 [DB]2 | [Gd]2 [DB]2 G3 z A | [DF]6 [DA]2 | %5
 [Cc]3 [CB] [DA]2 [DG]2 | e2 z [Gd]2 [EG]2 x | [Ec]3 [EB] [EA]2 [FA]2 | G6 |] %9
V:2
 x2 | x8 | x8 | x4 D2 ^C2 x | x8 | x8 | E3 (e2 F) x2 | x8 | G6 |] %9
V:3
 G,2 | [F,A,]2 [G,B,]2 [E,G,]2 [C,G,]2 | G,6 G,2 | G,3 z A, [E,B,]2 [A,,A,]2 | [D,A,]6 [D,F,]2 | %5
 G,2 z [F,C]2 [G,B,]2 x | [C,C]2 (G,A,) [B,,B,]2 [E,B,]2 | (A,2 E,)[B,,^G,] (A,B,) [D,C]2 | %8
 [G,,B,]6 |] %9
V:4
 G,2 | x8 | G,6 G,2 | B,,2 B,,2 x5 | x8 | E,3 (C2 E,) x2 | x2 C,2 x4 | A,,3 C,2 x3 | x6 |] %9

